X:4
T: Vidróczki
O: Bekölce (Heves), Vitéz József (69), 1953.08
M: 3/4
Q: "Parlandon" 1/4=80
L: 1/4
K: C
A/A/A/B/c/c/ | BA> z | 
HA/d/c/B/A/d/ | G<G z | 
A/A/G/F/G/A/ | G<F z | 
F/G/A/G/A/G/ | HD HD z | 

